src/main/resources/icons/SpringPersistenceIntegrationIcons/icons/springSessionFactory.svg

<svg xmlns="http://www.w3.org/2000/svg" width="16" height="16" viewBox="0 0 16 16">
  <g fill="none" fill-rule="evenodd">
    <path fill="#40B6E0" fill-opacity=".6" d="M14.9779891,4.78495073 L14.9683027,6.45059859 C14.6308037,7.42806196 11.639825,8.1926606 8,8.1926606 C4.13400675,8.1926606 1,7.33008993 1,6.26605509 L1,4.7732739 C2.5483493,5.59848716 5.10642125,6.13761469 8,6.13761469 C10.8799094,6.13761469 13.4274744,5.60356883 14.9779891,4.78494972 Z M8.20387394,11.5313481 C8.13615248,11.5318552 8.0681901,11.5321105 8,11.5321105 C4.13400675,11.5321105 1,10.7116164 1,9.6994857 L1,8.11272332 C2.5483493,8.93793658 5.10642125,9.47706412 8,9.47706412 C10.8678812,9.47706412 13.4061883,8.94746993 14.9585094,8.13464136 L14.9581293,8.2 C14.3361293,8.565 14,10 11.4201,10.3007 C9.83012312,10.4860196 8.82365294,10.9341365 8.20387394,11.5313481 Z M7.58732539,14.9967076 C3.91342152,14.9379221 1,14.0993004 1,13.0733945 L1,11.4521728 C2.44831116,12.2240694 4.7800845,12.7456537 7.44352502,12.8098302 C7.34013606,13.1732665 7.3001,13.5553799 7.3001,13.9427 C7.3001,14.2502279 7.36465448,14.6234044 7.58732539,14.9967076 Z M14.9894174,2.81975969 L14.9881383,3.03970707 C14.7754119,4.05109885 11.7280463,4.85321102 8,4.85321102 C4.13400675,4.85321102 1,3.99064035 1,2.92660551 C1,1.86257067 4.13400675,1 8,1 C11.7357294,1 14.7879695,1.8054217 14.9894174,2.81975969 Z"/>
    <path fill="#62B543" fill-opacity=".7" d="M15.3250988,14.8772067 C14.1360745,16.4601609 11.5978525,15.9290035 9.96981283,16.0026293 C9.96981283,16.0026293 9.68161765,16.0189906 9.39108418,16.0669057 C9.39108418,16.0669057 9.50098417,16.0201592 9.64128202,15.9716597 C10.784125,15.5766516 11.3248563,15.4971825 12.0199152,15.1401559 C13.3246853,14.4716806 14.6241941,13.0161107 14.8878372,11.5038607 C14.3909489,12.9588462 12.8798241,14.2104844 11.5043206,14.7176842 C10.5619867,15.0647771 8.85853691,15.4036894 8.85853691,15.4042738 L8.78955713,15.3674609 C7.63093069,14.8041653 7.5987791,12.2967986 9.70207776,11.4886681 C10.6245361,11.1339788 11.5066589,11.3291456 12.5033582,11.0913226 C13.5666991,10.8388914 14.7978127,10.0395258 15.2982084,9 C15.8599844,10.6641762 16.5339987,13.2673733 15.3250988,14.8772067 Z"/>
  </g>
</svg>

<svg xmlns="http://www.w3.org/2000/svg" width="16" height="16" viewBox="0 0 16 16"><rect id="frame" width="16" height="16" fill="none"/><g fill="none" fill-rule="evenodd"><path fill="#40B6E0" fill-opacity=".6" d="M14.978 4.785l-.01 1.666C14.631 7.428 11.64 8.193 8 8.193c-3.866 0-7-.863-7-1.927V4.773c1.548.825 4.106 1.365 7 1.365 2.88 0 5.427-.534 6.978-1.353zm-6.774 6.746L8 11.532c-3.866 0-7-.82-7-1.833V8.113c1.548.825 4.106 1.364 7 1.364 2.868 0 5.406-.53 6.959-1.342V8.2c-.623.365-.959 1.8-3.539 2.1-1.59.186-2.596.634-3.216 1.231zm-.617 3.466C3.913 14.937 1 14.099 1 13.073v-1.62c1.448.771 3.78 1.293 6.444 1.357a4.137 4.137 0 0 0-.144 1.133c0 .307.065.68.287 1.054zM14.99 2.82v.22C14.774 4.05 11.727 4.853 8 4.853c-3.866 0-7-.862-7-1.926S4.134 1 8 1c3.736 0 6.788.805 6.99 1.82z"/><path fill="#62B543" fill-opacity=".7" d="M15.325 14.877c-1.189 1.583-3.727 1.052-5.355 1.126 0 0-.288.016-.579.064 0 0 .11-.047.25-.095 1.143-.395 1.684-.475 2.379-.832 1.305-.668 2.604-2.124 2.868-3.636-.497 1.455-2.008 2.706-3.384 3.214-.942.347-2.645.686-2.645.686l-.07-.037c-1.158-.563-1.19-3.07.913-3.878.923-.355 1.805-.16 2.801-.398 1.064-.252 2.295-1.051 2.795-2.091.562 1.664 1.236 4.267.027 5.877z"/></g></svg>
